icon-themes/breeze_svg/cmd/32/rotateleft.svg

<svg viewBox="0 0 32 32" xmlns="http://www.w3.org/2000/svg"><path d="m15 3.5-4 4-1 1 1 1 4 4 .707031-.707031-3.792969-3.792969h9.085938v-1h-9.085938l3.792969-3.7929688zm8.5 5.5a.5.5 0 0 0 -.5.5.5.5 0 0 0 .5.5.5.5 0 0 0 .5-.5.5.5 0 0 0 -.5-.5zm-13.7089844 2-7.7910156 7.791016 9.208984 9.208984 7.791016-7.791016zm16.7089844 0a.5.5 0 0 0 -.5.5.5.5 0 0 0 .5.5.5.5 0 0 0 .5-.5.5.5 0 0 0 -.5-.5zm-16.7089844 1.416016 7.7929684 7.792968-6.375 6.375-7.7929684-7.792968zm18.7089844 1.583984a.5.5 0 0 0 -.5.5.5.5 0 0 0 .5.5.5.5 0 0 0 .5-.5.5.5 0 0 0 -.5-.5zm1 3a.5.5 0 0 0 -.5.5.5.5 0 0 0 .5.5.5.5 0 0 0 .5-.5.5.5 0 0 0 -.5-.5zm-1 3a.5.5 0 0 0 -.5.5.5.5 0 0 0 .5.5.5.5 0 0 0 .5-.5.5.5 0 0 0 -.5-.5zm-2 3a.5.5 0 0 0 -.5.5.5.5 0 0 0 .5.5.5.5 0 0 0 .5-.5.5.5 0 0 0 -.5-.5zm-9 2a.5.5 0 0 0 -.5.5.5.5 0 0 0 .5.5.5.5 0 0 0 .5-.5.5.5 0 0 0 -.5-.5zm6 0a.5.5 0 0 0 -.5.5.5.5 0 0 0 .5.5.5.5 0 0 0 .5-.5.5.5 0 0 0 -.5-.5zm-3 1a.5.5 0 0 0 -.5.5.5.5 0 0 0 .5.5.5.5 0 0 0 .5-.5.5.5 0 0 0 -.5-.5z" fill="#4d4d4d"/></svg>

<svg xmlns="http://www.w3.org/2000/svg" viewBox="0 0 32 32">
 <path 
     style="fill:#4d4d4d" 
     d="M 15 3.5 L 11 7.5 L 10 8.5 L 11 9.5 L 15 13.5 L 15.707031 12.792969 L 11.914062 9 L 21 9 L 21 8 L 11.914062 8 L 15.707031 4.2070312 L 15 3.5 z M 23.5 9 A 0.5 0.5 0 0 0 23 9.5 A 0.5 0.5 0 0 0 23.5 10 A 0.5 0.5 0 0 0 24 9.5 A 0.5 0.5 0 0 0 23.5 9 z M 9.7910156 11 L 2 18.791016 L 11.208984 28 L 19 20.208984 L 9.7910156 11 z M 26.5 11 A 0.5 0.5 0 0 0 26 11.5 A 0.5 0.5 0 0 0 26.5 12 A 0.5 0.5 0 0 0 27 11.5 A 0.5 0.5 0 0 0 26.5 11 z M 9.7910156 12.416016 L 17.583984 20.208984 L 11.208984 26.583984 L 3.4160156 18.791016 L 9.7910156 12.416016 z M 28.5 14 A 0.5 0.5 0 0 0 28 14.5 A 0.5 0.5 0 0 0 28.5 15 A 0.5 0.5 0 0 0 29 14.5 A 0.5 0.5 0 0 0 28.5 14 z M 29.5 17 A 0.5 0.5 0 0 0 29 17.5 A 0.5 0.5 0 0 0 29.5 18 A 0.5 0.5 0 0 0 30 17.5 A 0.5 0.5 0 0 0 29.5 17 z M 28.5 20 A 0.5 0.5 0 0 0 28 20.5 A 0.5 0.5 0 0 0 28.5 21 A 0.5 0.5 0 0 0 29 20.5 A 0.5 0.5 0 0 0 28.5 20 z M 26.5 23 A 0.5 0.5 0 0 0 26 23.5 A 0.5 0.5 0 0 0 26.5 24 A 0.5 0.5 0 0 0 27 23.5 A 0.5 0.5 0 0 0 26.5 23 z M 17.5 25 A 0.5 0.5 0 0 0 17 25.5 A 0.5 0.5 0 0 0 17.5 26 A 0.5 0.5 0 0 0 18 25.5 A 0.5 0.5 0 0 0 17.5 25 z M 23.5 25 A 0.5 0.5 0 0 0 23 25.5 A 0.5 0.5 0 0 0 23.5 26 A 0.5 0.5 0 0 0 24 25.5 A 0.5 0.5 0 0 0 23.5 25 z M 20.5 26 A 0.5 0.5 0 0 0 20 26.5 A 0.5 0.5 0 0 0 20.5 27 A 0.5 0.5 0 0 0 21 26.5 A 0.5 0.5 0 0 0 20.5 26 z "
     />
</svg>
